images/main/pickOne.svg

<svg width="76" height="50" viewBox="0 0 76 50" fill="none" xmlns="http://www.w3.org/2000/svg">
<path d="M55.92 3.40809C56.7684 3.40809 57.2278 2.41838 56.7094 1.7468C55.9554 0.780664 54.7772 0.156239 53.4458 0.156239C53.3516 0.156239 53.269 0.156215 53.1866 0.167997C52.0908 0.0973038 50.2764 -0.020499 49.97 0.0030653C48.1909 0.120887 47.4251 1.31087 47.2955 1.53473C47.2837 1.55829 47.2601 1.59365 47.2484 1.61721C46.8242 2.48909 46.8242 3.11356 46.8242 3.91475V30.1536L48.4266 28.457C48.8272 28.0328 49.4987 28.0328 49.8993 28.457L51.5489 30.1654V4.5863C51.5489 4.05611 51.9494 3.60839 52.4796 3.56126C53.6579 3.467 54.8125 3.41988 55.9318 3.41988L55.92 3.40809Z" fill="url(#paint0_linear_401_12436)"/>
<path d="M55.92 3.40809C56.7684 3.40809 57.2278 2.41838 56.7094 1.7468C55.9554 0.780664 54.7772 0.156239 53.4458 0.156239C53.3516 0.156239 53.269 0.156215 53.1866 0.167997C52.0908 0.0973038 50.2764 -0.020499 49.97 0.0030653C48.1909 0.120887 47.4251 1.31087 47.2955 1.53473C47.2837 1.55829 47.2601 1.59365 47.2484 1.61721C46.8242 2.48909 46.8242 3.11356 46.8242 3.91475V30.1536L48.4266 28.457C48.8272 28.0328 49.4987 28.0328 49.8993 28.457L51.5489 30.1654V4.5863C51.5489 4.05611 51.9494 3.60839 52.4796 3.56126C53.6579 3.467 54.8125 3.41988 55.9318 3.41988L55.92 3.40809Z" fill="url(#paint1_linear_401_12436)"/>
<path d="M68.1712 48.2429C64.1771 46.9351 54.4921 44.5904 41.2961 46.8644C40.978 46.9233 40.7306 47.1354 40.5774 47.4181C40.4242 47.7127 40.2239 47.9955 39.9883 48.2429H68.1594H68.1712Z" fill="url(#paint2_linear_401_12436)"/>
<path d="M68.1712 48.2429C64.1771 46.9351 54.4921 44.5904 41.2961 46.8644C40.978 46.9233 40.7306 47.1354 40.5774 47.4181C40.4242 47.7127 40.2239 47.9955 39.9883 48.2429H68.1594H68.1712Z" fill="url(#paint3_linear_401_12436)"/>
<path d="M6.25789 48.2459H34.5586C34.3347 48.0103 34.1345 47.7393 33.9813 47.4447C33.8399 47.1737 33.5807 46.9499 33.2744 46.9028C20.0076 44.5817 10.2638 46.9381 6.24609 48.2459H6.25789Z" fill="url(#paint4_linear_401_12436)"/>
<path d="M6.25789 48.2459H34.5586C34.3347 48.0103 34.1345 47.7393 33.9813 47.4447C33.8399 47.1737 33.5807 46.9499 33.2744 46.9028C20.0076 44.5817 10.2638 46.9381 6.24609 48.2459H6.25789Z" fill="url(#paint5_linear_401_12436)"/>
<path d="M36.1358 41.4561V8.65458C36.1358 8.25398 35.9119 7.88873 35.5466 7.72378C33.7675 6.93437 30.3625 5.42627 29.0783 5.0139C18.71 1.66777 7.38731 4.77823 4.73633 5.61476V45.4974C4.73633 46.1925 5.39612 46.6874 6.05592 46.4753C9.06037 45.5092 14.5744 44.166 22.0443 44.166C25.2373 44.166 28.7955 44.4134 32.66 45.0379C33.1431 45.1203 33.6026 44.8375 33.7793 44.3898C34.1092 43.4944 34.7808 42.7639 35.6173 42.3515C35.9472 42.1866 36.124 41.8331 36.124 41.4679L36.1358 41.4561Z" fill="url(#paint6_linear_401_12436)"/>
<path d="M36.1358 41.4561V8.65458C36.1358 8.25398 35.9119 7.88873 35.5466 7.72378C33.7675 6.93437 30.3625 5.42627 29.0783 5.0139C18.71 1.66777 7.38731 4.77823 4.73633 5.61476V45.4974C4.73633 46.1925 5.39612 46.6874 6.05592 46.4753C9.06037 45.5092 14.5744 44.166 22.0443 44.166C25.2373 44.166 28.7955 44.4134 32.66 45.0379C33.1431 45.1203 33.6026 44.8375 33.7793 44.3898C34.1092 43.4944 34.7808 42.7639 35.6173 42.3515C35.9472 42.1866 36.124 41.8331 36.124 41.4679L36.1358 41.4561Z" fill="url(#paint7_linear_401_12436)"/>
<path d="M73.4739 8.69939C73.4739 8.13328 73.0176 7.67432 72.4547 7.67432C71.8918 7.67432 71.4355 8.13328 71.4355 8.69939V47.2152C71.4355 47.7814 71.8918 48.2403 72.4547 48.2403C73.0176 48.2403 73.4739 47.7814 73.4739 47.2152V8.69939Z" fill="url(#paint8_linear_401_12436)"/>
<path d="M73.4739 8.69939C73.4739 8.13328 73.0176 7.67432 72.4547 7.67432C71.8918 7.67432 71.4355 8.13328 71.4355 8.69939V47.2152C71.4355 47.7814 71.8918 48.2403 72.4547 48.2403C73.0176 48.2403 73.4739 47.7814 73.4739 47.2152V8.69939Z" fill="url(#paint9_linear_401_12436)"/>
<path d="M2.99492 7.67432H1.75781V48.2403H2.99492V7.67432Z" fill="url(#paint10_linear_401_12436)"/>
<path d="M2.99492 7.67432H1.75781V48.2403H2.99492V7.67432Z" fill="url(#paint11_linear_401_12436)"/>
<path d="M71.4352 5.93375V4.35495L70.8578 4.15464C70.3041 3.95434 57.1788 -0.628909 44.8193 3.35346C43.2876 3.84831 39.1403 5.69812 37.6204 6.38148C37.3494 6.4993 37.0666 6.4993 36.7956 6.38148C35.2757 5.69812 31.1284 3.84831 29.5968 3.35346C17.2373 -0.628909 4.11196 3.95434 3.5582 4.15464L2.98088 4.35495V5.93375H1.02504C0.459498 5.93375 0 6.39325 0 6.95879V48.974C0 49.5395 0.459498 49.999 1.02504 49.999H74.1922C74.7578 49.999 75.2172 49.5395 75.2172 48.974V6.95879C75.2172 6.39325 74.7578 5.93375 74.1922 5.93375H71.4352ZM2.99264 48.2435H1.75553V7.67749H2.99264V48.2435ZM6.25632 48.2435C10.274 46.9356 20.0061 44.5792 33.2846 46.9003C33.5909 46.9592 33.8383 47.1713 33.9915 47.4423C34.1446 47.7368 34.345 48.0078 34.5688 48.2435H6.26808H6.25632ZM40.0122 48.2435C40.236 47.996 40.4363 47.725 40.6013 47.4187C40.7545 47.1359 41.0019 46.9121 41.32 46.8649C54.516 44.591 64.1891 46.9356 68.1951 48.2435H40.024H40.0122ZM69.7032 45.4864C69.7032 46.1816 69.0434 46.6764 68.3836 46.4643C65.3792 45.4982 59.8651 44.1551 52.3952 44.1551C48.9784 44.1551 45.161 44.4378 40.9901 45.1565C40.4363 45.2508 39.8826 45.3568 39.317 45.4629L38.3037 45.5807V8.64363C38.3037 8.24304 38.5276 7.87782 38.8929 7.71287C40.672 6.92346 44.077 5.41533 45.3613 5.00295C54.9637 1.90425 65.3792 4.34316 68.9727 5.37999C69.4087 5.50959 69.7032 5.89839 69.7032 6.35789V45.4747V45.4864ZM72.4602 48.2435C71.8947 48.2435 71.4352 47.784 71.4352 47.2184V8.69077C71.4352 8.12523 71.8947 7.66573 72.4602 7.66573C73.0257 7.66573 73.4852 8.12523 73.4852 8.69077V47.2184C73.4852 47.784 73.0257 48.2435 72.4602 48.2435Z" fill="url(#paint12_linear_401_12436)"/>
<path d="M71.4352 5.93375V4.35495L70.8578 4.15464C70.3041 3.95434 57.1788 -0.628909 44.8193 3.35346C43.2876 3.84831 39.1403 5.69812 37.6204 6.38148C37.3494 6.4993 37.0666 6.4993 36.7956 6.38148C35.2757 5.69812 31.1284 3.84831 29.5968 3.35346C17.2373 -0.628909 4.11196 3.95434 3.5582 4.15464L2.98088 4.35495V5.93375H1.02504C0.459498 5.93375 0 6.39325 0 6.95879V48.974C0 49.5395 0.459498 49.999 1.02504 49.999H74.1922C74.7578 49.999 75.2172 49.5395 75.2172 48.974V6.95879C75.2172 6.39325 74.7578 5.93375 74.1922 5.93375H71.4352ZM2.99264 48.2435H1.75553V7.67749H2.99264V48.2435ZM6.25632 48.2435C10.274 46.9356 20.0061 44.5792 33.2846 46.9003C33.5909 46.9592 33.8383 47.1713 33.9915 47.4423C34.1446 47.7368 34.345 48.0078 34.5688 48.2435H6.26808H6.25632ZM40.0122 48.2435C40.236 47.996 40.4363 47.725 40.6013 47.4187C40.7545 47.1359 41.0019 46.9121 41.32 46.8649C54.516 44.591 64.1891 46.9356 68.1951 48.2435H40.024H40.0122ZM69.7032 45.4864C69.7032 46.1816 69.0434 46.6764 68.3836 46.4643C65.3792 45.4982 59.8651 44.1551 52.3952 44.1551C48.9784 44.1551 45.161 44.4378 40.9901 45.1565C40.4363 45.2508 39.8826 45.3568 39.317 45.4629L38.3037 45.5807V8.64363C38.3037 8.24304 38.5276 7.87782 38.8929 7.71287C40.672 6.92346 44.077 5.41533 45.3613 5.00295C54.9637 1.90425 65.3792 4.34316 68.9727 5.37999C69.4087 5.50959 69.7032 5.89839 69.7032 6.35789V45.4747V45.4864ZM72.4602 48.2435C71.8947 48.2435 71.4352 47.784 71.4352 47.2184V8.69077C71.4352 8.12523 71.8947 7.66573 72.4602 7.66573C73.0257 7.66573 73.4852 8.12523 73.4852 8.69077V47.2184C73.4852 47.784 73.0257 48.2435 72.4602 48.2435Z" fill="url(#paint13_linear_401_12436)"/>
<defs>
<linearGradient id="paint0_linear_401_12436" x1="65.373" y1="-7.08936" x2="33.831" y2="15.9938" gradientUnits="userSpaceOnUse">
<stop stop-color="#F0F4F8"/>
<stop offset="0.0754656" stop-color="#F0F4F8"/>
<stop offset="0.33956" stop-color="#DE97FF"/>
<stop offset="0.83" stop-color="#A827D8"/>
<stop offset="0.953982" stop-color="#8520AB"/>
</linearGradient>
<linearGradient id="paint1_linear_401_12436" x1="43.2157" y1="-20.8285" x2="82.7042" y2="16.8446" gradientUnits="userSpaceOnUse">
<stop offset="0.2" stop-color="#FFFFA8"/>
<stop offset="0.53" stop-color="#FFCE4E"/>
<stop offset="0.94" stop-color="#C69024"/>
</linearGradient>
<linearGradient id="paint2_linear_401_12436" x1="91.7268" y1="45.3643" x2="91.5336" y2="50.4709" gradientUnits="userSpaceOnUse">
<stop stop-color="#F0F4F8"/>
<stop offset="0.0754656" stop-color="#F0F4F8"/>
<stop offset="0.33956" stop-color="#DE97FF"/>
<stop offset="0.83" stop-color="#A827D8"/>
<stop offset="0.953982" stop-color="#8520AB"/>
</linearGradient>
<linearGradient id="paint3_linear_401_12436" x1="29.9229" y1="44.3028" x2="30.1002" y2="50.4067" gradientUnits="userSpaceOnUse">
<stop offset="0.2" stop-color="#FFFFA8"/>
<stop offset="0.53" stop-color="#FFCE4E"/>
<stop offset="0.94" stop-color="#C69024"/>
</linearGradient>
<linearGradient id="paint4_linear_401_12436" x1="58.2225" y1="45.3757" x2="58.0312" y2="50.4676" gradientUnits="userSpaceOnUse">
<stop stop-color="#F0F4F8"/>
<stop offset="0.0754656" stop-color="#F0F4F8"/>
<stop offset="0.33956" stop-color="#DE97FF"/>
<stop offset="0.83" stop-color="#A827D8"/>
<stop offset="0.953982" stop-color="#8520AB"/>
</linearGradient>
<linearGradient id="paint5_linear_401_12436" x1="-3.86552" y1="44.3172" x2="-3.69011" y2="50.4035" gradientUnits="userSpaceOnUse">
<stop offset="0.2" stop-color="#FFFFA8"/>
<stop offset="0.53" stop-color="#FFCE4E"/>
<stop offset="0.94" stop-color="#C69024"/>
</linearGradient>
<linearGradient id="paint6_linear_401_12436" x1="62.3797" y1="-6.61578" x2="19.8851" y2="61.1371" gradientUnits="userSpaceOnUse">
<stop stop-color="#F0F4F8"/>
<stop offset="0.0754656" stop-color="#F0F4F8"/>
<stop offset="0.33956" stop-color="#DE97FF"/>
<stop offset="0.83" stop-color="#A827D8"/>
<stop offset="0.953982" stop-color="#8520AB"/>
</linearGradient>
<linearGradient id="paint7_linear_401_12436" x1="-6.47775" y1="-26.2134" x2="37.583" y2="65.3667" gradientUnits="userSpaceOnUse">
<stop offset="0.2" stop-color="#FFFFA8"/>
<stop offset="0.53" stop-color="#FFCE4E"/>
<stop offset="0.94" stop-color="#C69024"/>
</linearGradient>
<linearGradient id="paint8_linear_401_12436" x1="75.1776" y1="-1.85936" x2="65.5227" y2="-0.799388" gradientUnits="userSpaceOnUse">
<stop stop-color="#F0F4F8"/>
<stop offset="0.0754656" stop-color="#F0F4F8"/>
<stop offset="0.33956" stop-color="#DE97FF"/>
<stop offset="0.83" stop-color="#A827D8"/>
<stop offset="0.953982" stop-color="#8520AB"/>
</linearGradient>
<linearGradient id="paint9_linear_401_12436" x1="70.7076" y1="-20.3355" x2="85.6193" y2="-18.2013" gradientUnits="userSpaceOnUse">
<stop offset="0.2" stop-color="#FFFFA8"/>
<stop offset="0.53" stop-color="#FFCE4E"/>
<stop offset="0.94" stop-color="#C69024"/>
</linearGradient>
<linearGradient id="paint10_linear_401_12436" x1="4.02891" y1="-1.85936" x2="-1.8752" y2="-1.46596" gradientUnits="userSpaceOnUse">
<stop stop-color="#F0F4F8"/>
<stop offset="0.0754656" stop-color="#F0F4F8"/>
<stop offset="0.33956" stop-color="#DE97FF"/>
<stop offset="0.83" stop-color="#A827D8"/>
<stop offset="0.953982" stop-color="#8520AB"/>
</linearGradient>
<linearGradient id="paint11_linear_401_12436" x1="1.31599" y1="-20.3355" x2="10.4824" y2="-19.5393" gradientUnits="userSpaceOnUse">
<stop offset="0.2" stop-color="#FFFFA8"/>
<stop offset="0.53" stop-color="#FFCE4E"/>
<stop offset="0.94" stop-color="#C69024"/>
</linearGradient>
<linearGradient id="paint12_linear_401_12436" x1="138.085" y1="-9.61102" x2="109.452" y2="87.8781" gradientUnits="userSpaceOnUse">
<stop stop-color="#F0F4F8"/>
<stop offset="0.0754656" stop-color="#F0F4F8"/>
<stop offset="0.33956" stop-color="#DE97FF"/>
<stop offset="0.83" stop-color="#A827D8"/>
<stop offset="0.953982" stop-color="#8520AB"/>
</linearGradient>
<linearGradient id="paint13_linear_401_12436" x1="-26.8633" y1="-31.5945" x2="0.261324" y2="88.8027" gradientUnits="userSpaceOnUse">
<stop offset="0.2" stop-color="#FFFFA8"/>
<stop offset="0.53" stop-color="#FFCE4E"/>
<stop offset="0.94" stop-color="#C69024"/>
</linearGradient>
</defs>
</svg>

<svg xmlns="http://www.w3.org/2000/svg" xmlns:xlink="http://www.w3.org/1999/xlink" viewBox="0 0 75.22 50"><defs><style>.cls-1{fill:url(#Безымянный_градиент_14);}.cls-2{fill:url(#Безымянный_градиент_14-2);}.cls-3{fill:url(#Безымянный_градиент_14-3);}.cls-4{fill:url(#Безымянный_градиент_14-4);}.cls-5{fill:url(#Безымянный_градиент_14-5);}.cls-6{fill:url(#Безымянный_градиент_14-6);}.cls-7{fill:url(#Безымянный_градиент_14-7);}</style><linearGradient id="Безымянный_градиент_14" x1="28.94" y1="129.4" x2="68.42" y2="91.73" gradientTransform="matrix(1, 0, 0, -1, 0, 123.54)" gradientUnits="userSpaceOnUse"><stop offset="0.2" stop-color="#ffffa8"/><stop offset="0.53" stop-color="#ffce4e"/><stop offset="0.94" stop-color="#c69024"/></linearGradient><linearGradient id="Безымянный_градиент_14-2" x1="53.95" y1="79.94" x2="54.12" y2="73.83" xlink:href="#Безымянный_градиент_14"/><linearGradient id="Безымянный_градиент_14-3" x1="20.27" y1="79.92" x2="20.44" y2="73.84" xlink:href="#Безымянный_градиент_14"/><linearGradient id="Безымянный_градиент_14-4" x1="-5.44" y1="150.25" x2="38.62" y2="58.67" xlink:href="#Безымянный_градиент_14"/><linearGradient id="Безымянный_градиент_14-5" x1="63.97" y1="96.8" x2="78.88" y2="94.67" xlink:href="#Безымянный_градиент_14"/><linearGradient id="Безымянный_градиент_14-6" x1="-2.84" y1="96.04" x2="6.33" y2="95.24" xlink:href="#Безымянный_градиент_14"/><linearGradient id="Безымянный_градиент_14-7" x1="21.72" y1="166.08" x2="48.85" y2="45.69" xlink:href="#Безымянный_градиент_14"/></defs><g id="Слой_2" data-name="Слой 2"><g id="Слой_1-2" data-name="Слой 1"><path class="cls-1" d="M55.92,3.41a1,1,0,0,0,.79-1.66A4.12,4.12,0,0,0,53.45.16h-.26C52.09.1,50.27,0,50,0a3.32,3.32,0,0,0-2.68,1.53l0,.09a4.48,4.48,0,0,0-.43,2.29V30.15l1.61-1.69a1,1,0,0,1,1.47,0l1.65,1.71V4.59a1,1,0,0,1,.93-1c1.18-.09,2.33-.14,3.45-.14Z"/><path class="cls-2" d="M68.17,48.24c-4-1.31-13.68-3.65-26.87-1.38a1,1,0,0,0-.72.56,3.55,3.55,0,0,1-.59.82H68.17Z"/><path class="cls-3" d="M6.26,48.25h28.3a3.62,3.62,0,0,1-.58-.81,1,1,0,0,0-.71-.54c-13.26-2.32-23,0-27,1.35Z"/><path class="cls-4" d="M36.14,41.46V8.65a1,1,0,0,0-.59-.93C33.77,6.93,30.36,5.43,29.08,5c-10.37-3.34-21.69-.23-24.34.6V45.5a1,1,0,0,0,1.32,1,52.82,52.82,0,0,1,16-2.31A66.05,66.05,0,0,1,32.66,45a1,1,0,0,0,1.12-.65,3.69,3.69,0,0,1,1.84-2,1,1,0,0,0,.5-.88Z"/><path class="cls-5" d="M73.48,8.7a1,1,0,1,0-2,0V47.21a1,1,0,1,0,2,0Z"/><path class="cls-6" d="M3,7.67H1.76V48.24H3Z"/><path class="cls-7" d="M71.43,5.93V4.35l-.57-.2c-.56-.2-13.68-4.78-26-.8-1.53.5-5.68,2.35-7.2,3a1,1,0,0,1-.82,0c-1.52-.68-5.67-2.53-7.2-3-12.36-4-25.49.6-26,.8L3,4.35V5.93H1A1,1,0,0,0,0,7V49a1,1,0,0,0,1,1H74.19a1,1,0,0,0,1-1V7a1,1,0,0,0-1-1ZM3,48.24H1.76V7.68H3Zm3.27,0c4-1.3,13.75-3.66,27-1.34a1.06,1.06,0,0,1,.7.54,3.65,3.65,0,0,0,.58.8H6.26Zm33.75,0a3.72,3.72,0,0,0,.59-.82,1,1,0,0,1,.72-.56c13.2-2.27,22.87.08,26.88,1.38H40ZM69.7,45.49a1,1,0,0,1-1.32,1,52.82,52.82,0,0,0-16-2.31,67.11,67.11,0,0,0-11.41,1l-1.67.3-1,.12V8.64a1,1,0,0,1,.59-.93c1.78-.79,5.19-2.29,6.47-2.71,9.6-3.1,20-.66,23.61.38a1,1,0,0,1,.73,1V45.49Zm2.76,2.75a1,1,0,0,1-1-1V8.69a1,1,0,0,1,2.06,0V47.22A1,1,0,0,1,72.46,48.24Z"/></g></g></svg>
